brandFactory_export/2.Regular/Microfono_2Regular.svg

<?xml version="1.0" encoding="UTF-8"?>
<svg width="24px" height="24px" viewBox="0 0 24 24" version="1.1" xmlns="http://www.w3.org/2000/svg" xmlns:xlink="http://www.w3.org/1999/xlink">
    <title>2.Regular/Microfono_2Regular</title>
    <g id="Symbols" stroke="none" stroke-width="1" fill="none" fill-rule="evenodd">
        <g id="2.Regular/Microfono_2Regular" fill="#5CB615" fill-rule="nonzero">
            <path d="M16.3445378,13.502521 L16.3445378,5.43865546 C16.3445378,2.76638655 15.0470588,1.46554622 12.3747899,1.46554622 C9.70252101,1.46554622 8.40504202,2.76302521 8.40504202,5.43865546 L8.40504202,13.502521 C8.40504202,16.1747899 9.70252101,17.4756303 12.3747899,17.4756303 C15.0470588,17.4756303 16.3445378,16.1747899 16.3445378,13.502521 Z M12.3747899,0 C15.8806723,0 17.810084,1.93277311 17.810084,5.43865546 L17.810084,13.502521 C17.810084,17.0084034 15.8806723,18.9411765 12.3747899,18.9411765 C8.86890756,18.9411765 6.9394958,17.0084034 6.9394958,13.502521 L6.9394958,5.43865546 C6.9394958,1.93277311 8.86890756,0 12.3747899,0 Z M12.4016807,21.3277311 C13.0336134,21.3277311 13.5478992,21.8420168 13.5478992,22.4773109 C13.5478992,23.1092437 13.0336134,23.6235294 12.4016807,23.6235294 C11.7697479,23.6235294 11.2554622,23.1092437 11.2554622,22.4773109 C11.2554622,21.8420168 11.7697479,21.3277311 12.4016807,21.3277311 Z M16.394958,20.1815126 C17.0268908,20.1815126 17.5411765,20.6957983 17.5411765,21.3277311 C17.5411765,21.9630252 17.0268908,22.4773109 16.394958,22.4773109 C15.7630252,22.4773109 15.2487395,21.9630252 15.2487395,21.3277311 C15.2487395,20.6957983 15.7630252,20.1815126 16.394958,20.1815126 Z M19.6016807,17.4453782 C20.2336134,17.4453782 20.7478992,17.9596639 20.7478992,18.5915966 C20.7478992,19.2268908 20.2336134,19.7378151 19.6016807,19.7378151 C18.9697479,19.7378151 18.4554622,19.2235294 18.4554622,18.5915966 C18.4554622,17.9596639 18.9697479,17.4453782 19.6016807,17.4453782 Z M20.7478992,13.5394958 C21.2890756,13.5394958 21.7260504,13.9764706 21.7260504,14.5176471 C21.7260504,15.0588235 21.2890756,15.4957983 20.7478992,15.4957983 C20.2067227,15.4957983 19.7697479,15.0588235 19.7697479,14.5176471 C19.7697479,13.9798319 20.2067227,13.5394958 20.7478992,13.5394958 L20.7478992,13.5394958 Z M8.35462185,20.1815126 C8.98655462,20.1815126 9.50084034,20.6957983 9.50084034,21.3277311 C9.50084034,21.9630252 8.98655462,22.4773109 8.35462185,22.4773109 C7.72268908,22.4773109 7.20838708,21.9630252 7.20838708,21.3277311 C7.20504202,20.6957983 7.72268908,20.1815126 8.35462185,20.1815126 L8.35462185,20.1815126 Z M5.14789916,17.4453782 C5.77983193,17.4453782 6.29411765,17.9596639 6.29411765,18.5915966 C6.29411765,19.2268908 5.77983193,19.7378151 5.14789916,19.7378151 C4.51596639,19.7378151 4.00168067,19.2235294 4.00168067,18.5915966 C4.00168067,17.9596639 4.51596639,17.4453782 5.14789916,17.4453782 Z M4.97983193,14.5210084 C4.97983193,15.0621849 4.54285714,15.4991597 4.00168067,15.4991597 C3.4605042,15.4991597 3.02352941,15.0621849 3.02352941,14.5210084 C3.02352941,13.9798319 3.4605042,13.542838 4.00168067,13.542838 C4.54285714,13.5394958 4.97983193,13.9798319 4.97983193,14.5210084 Z" id="Microfono_2Regular"></path>
        </g>
    </g>
</svg>

<svg width="24" height="24" viewBox="0 0 24 24" xmlns="http://www.w3.org/2000/svg"><path d="M16.345 13.503V5.439c0-2.673-1.298-3.973-3.97-3.973s-3.97 1.297-3.97 3.973v8.064c0 2.672 1.298 3.973 3.97 3.973s3.97-1.301 3.97-3.973zM12.375 0c3.506 0 5.435 1.933 5.435 5.439v8.064c0 3.505-1.93 5.438-5.435 5.438-3.506 0-5.436-1.933-5.436-5.438V5.439C6.94 1.933 8.87 0 12.375 0zm.027 21.328a1.148 1.148 0 010 2.296 1.148 1.148 0 010-2.296zm3.993-1.146a1.148 1.148 0 010 2.295 1.148 1.148 0 010-2.295zm3.207-2.737a1.145 1.145 0 11.001 2.294 1.145 1.145 0 01-.001-2.294zm1.146-3.906a.977.977 0 110 1.957.977.977 0 110-1.957zM8.355 20.182a1.148 1.148 0 010 2.295 1.148 1.148 0 010-2.295zm-3.207-2.737a1.145 1.145 0 11.001 2.294 1.145 1.145 0 01-.001-2.294zm-.168-2.924a.977.977 0 11-1.956 0c0-.541.437-.978.978-.978a.975.975 0 01.978.978z" fill="#5CB615" fill-rule="nonzero"/></svg>
